X: 10
T: Donald Blue
R: reel
M: 4/4
L: 1/8
K: Dmaj
(3ABc|:dBAF A2FA|dBAF ED (3ABc|dBAF A2dc|1 B3B B2 (3ABc:|2 B3B B2dB ||
|:A3d f2ef|~g2fe {f}edBd|(3ABc de fded B3B B2dB|
|ABde f2ef|~g2fe {f}edBd| (3ABc de f2dA| B3B B2 (3ABc ||


